P1
300 400
0:75 1:129 0:171 1:129 0:171 1:129 0:171 1:129 0:171 1:129 0:171 1:129 0:171 1:129 0:171 1:129 0:171 1:129 0:171 1:129 0:171 1:129 0:171 1:129 0:171 1:129 0:171 1:129 0:171 1:129 0:171 1:129 0:171 1:129 0:171 1:129 0:171 1:129 0:171 1:129 0:171 1:129 0:171 1:129 0:171 1:129 0:171 1:129 0:171 1:129 0:146 1:229 0:71 1:229 0:71 1:229 0:71 1:229 0:71 1:229 0:71 1:229 0:71 1:229 0:71 1:229 0:71 1:229 0:71 1:229 0:71 1:229 0:71 1:229 0:71 1:229 0:71 1:229 0:71 1:229 0:71 1:229 0:71 1:229 0:71 1:229 0:71 1:229 0:71 1:229 0:71 1:229 0:71 1:229 0:71 1:229 0:71 1:229 0:71 1:229 0:71 1:229 0:71 1:229 0:71 1:228 0:72 1:227 0:73 1:179 0:121 1:179 0:121 1:179 0:121 1:179 0:121 1:179 0:121 1:179 0:121 1:179 0:121 1:179 0:121 1:179 0:121 1:179 0:121 1:179 0:121 1:179 0:121 1:179 0:121 1:179 0:121 1:179 0:121 1:179 0:121 1:179 0:121 1:179 0:121 1:179 0:121 1:179 0:121 1:179 0:96 1:254 0:46 1:254 0:46 1:254 0:46 1:254 0:46 1:254 0:46 1:254 0:46 1:254 0:46 1:254 0:46 1:254 0:46 1:254 0:46 1:254 0:46 1:254 0:46 1:254 0:46 1:254 0:46 1:254 0:46 1:254 0:46 1:254 0:46 1:254 0:46 1:254 0:46 1:254 0:46 1:254 0:46 1:254 0:46 1:254 0:46 1:254 0:46 1:254 0:46 1:275 0:25 1:275 0:25 1:275 0:25 1:275 0:25 1:275 0:25 1:275 0:25 1:275 0:25 1:275 0:25 1:275 0:25 1:275 0:25 1:275 0:25 1:275 0:25 1:275 0:25 1:275 0:25 1:275 0:25 1:275 0:25 1:275 0:25 1:275 0:25 1:275 0:25 1:275 0:25 1:275 0:25 1:275 0:25 1:275 0:25 1:275 0:25 1:275 0:25 1:275 0:25 1:275 0:25 1:275 0:25 1:275 0:25 1:253 0:47 1:253 0:47 1:253 0:47 1:253 0:47 1:253 0:47 1:253 0:47 1:253 0:47 1:253 0:47 1:253 0:47 1:253 0:47 1:253 0:47 1:253 0:47 1:253 0:47 1:253 0:47 1:253 0:47 1:253 0:47 1:253 0:47 1:253 0:47 1:253 0:47 1:253 0:47 1:253 0:97 1:203 0:97 1:203 0:97 1:202 0:98 1:177 0:123 1:177 0:123 1:177 0:123 1:177 0:123 1:177 0:123 1:177 0:123 1:177 0:123 1:177 0:123 1:177 0:123 1:177 0:123 1:177 0:123 1:177 0:123 1:177 0:123 1:177 0:123 1:177 0:123 1:177 0:123 1:177 0:123 1:177 0:123 1:177 0:123 1:177 0:123 1:177 0:123 1:177 0:98 1:202 0:98 1:202 0:98 1:202 0:98 1:201 0:99 1:153 0:147 1:153 0:147 1:153 0:147 1:153 0:147 1:153 0:147 1:153 0:147 1:153 0:147 1:153 0:147 1:153 0:147 1:153 0:147 1:153 0:147 1:153 0:147 1:153 0:147 1:153 0:147 1:153 0:147 1:153 0:147 1:153 0:147 1:153 0:147 1:153 0:147 1:153 0:147 1:153 0:122 1:253 0:47 1:253 0:47 1:253 0:47 1:253 0:47 1:253 0:47 1:253 0:47 1:253 0:47 1:253 0:47 1:253 0:47 1:253 0:47 1:253 0:47 1:253 0:47 1:253 0:47 1:253 0:47 1:253 0:47 1:253 0:47 1:253 0:47 1:253 0:47 1:253 0:47 1:253 0:47 1:253 0:47 1:253 0:47 1:253 0:47 1:253 0:47 1:253 0:22 1:30000 0:50 1:79 0:46 1:125 0:50 1:79 0:46 1:125 0:50 1:79 0:46 1:125 0:50 1:79 0:46 1:125 0:50 1:79 0:46 1:77 0:98 1:79 0:46 1:77 0:98 1:79 0:46 1:77 0:98 1:79 0:46 1:77 0:98 1:79 0:46 1:77 0:98 1:79 0:46 1:77 0:98 1:79 0:46 1:77 0:98 1:79 0:46 1:77 0:98 1:79 0:46 1:75 0:100 1:79 0:46 1:75 0:100 1:79 0:46 1:75 0:100 1:79 0:46 1:75 0:100 1:79 0:46 1:75 0:100 1:79 0:46 1:75 0:100 1:79 0:46 1:75 0:100 1:79 0:46 1:75 0:100 1:79 0:46 1:75 0:100 1:79 0:46 1:75 0:100 1:79 0:46 1:75 0:100 1:79 0:46 1:75 0:100 1:79 0:46 1:75 0:75 1:78 0:97 1:78 0:47 1:78 0:97 1:78 0:47 1:78 0:97 1:78 0:47 1:78 0:97 1:78 0:47 1:78 0:97 1:78 0:47 1:78 0:97 1:78 0:47 1:78 0:97 1:78 0:47 1:78 0:97 1:78 0:47 1:78 0:97 1:78 0:47 1:78 0:97 1:78 0:47 1:78 0:97 1:78 0:47 1:78 0:97 1:78 0:47 1:78 0:97 1:78 0:47 1:78 0:97 1:78 0:47 1:78 0:97 1:78 0:47 1:78 0:97 1:78 0:47 1:78 0:97 1:78 0:47 1:78 0:97 1:78 0:47 1:78 0:97 1:78 0:47 1:78 0:97 1:78 0:47 1:78 0:97 1:78 0:47 1:78 0:97 1:78 0:47 1:78 0:97 1:78 0:47 1:78 0:97 1:78 0:47 1:78 0:97 1:78 0:22 1:103 0:97 1:203 0:97 1:203 0:97 1:203 0:97 1:203 0:97 1:203 0:97 1:203 0:97 1:203 0:97 1:203 0:97 1:203 0:97 1:203 0:97 1:203 0:97 1:203 0:97 1:203 0:97 1:203 0:97 1:203 0:97 1:203 0:97 1:203 0:97 1:203 0:97 1:203 0:97 1:203 0:97 1:203 0:97 1:203 0:97 1:203 0:97 1:203 0:97 1:100