P2
300 400
255
255:75 81:1 45:123 103:1 253:1 255:174 81:1 45:123 103:1 253:1 255:174 81:1 45:123 103:1 253:1 255:174 81:1 45:123 103:1 253:1 255:174 81:1 45:123 103:1 253:1 255:174 81:1 45:123 103:1 253:1 255:174 81:1 45:123 103:1 253:1 255:174 81:1 45:123 103:1 253:1 255:174 81:1 45:123 103:1 253:1 255:174 81:1 45:123 103:1 253:1 255:174 81:1 45:123 103:1 253:1 255:174 81:1 45:123 103:1 253:1 255:174 81:1 45:123 103:1 253:1 255:174 81:1 45:123 103:1 253:1 255:174 81:1 45:123 103:1 253:1 255:174 81:1 45:123 103:1 253:1 255:174 81:1 45:123 103:1 253:1 255:174 81:1 45:123 103:1 253:1 255:174 81:1 45:123 103:1 253:1 255:174 81:1 45:123 103:1 253:1 255:174 81:1 45:123 103:1 253:1 255:174 81:1 45:123 103:1 253:1 255:174 81:1 45:123 103:1 253:1 255:174 81:1 45:123 103:1 253:1 255:174 81:1 45:123 103:1 253:1 255:149 82:1 81:24 78:1 45:123 103:1 105:75 253:1 255:74 81:1 46:1 45:147 46:75 103:1 253:1 255:74 81:1 45:223 103:1 253:1 255:74 81:1 45:223 103:1 253:1 255:74 81:1 45:223 103:1 253:1 255:74 81:1 45:223 103:1 253:1 255:74 81:1 45:223 103:1 253:1 255:74 81:1 45:223 103:1 253:1 255:74 81:1 45:223 103:1 253:1 255:74 81:1 45:223 103:1 253:1 255:74 81:1 45:223 103:1 253:1 255:74 81:1 45:223 103:1 253:1 255:74 81:1 45:223 103:1 253:1 255:74 81:1 45:223 103:1 253:1 255:74 81:1 45:223 103:1 253:1 255:74 81:1 45:223 103:1 253:1 255:74 81:1 45:223 103:1 253:1 255:74 81:1 45:223 103:1 253:1 255:74 81:1 45:223 103:1 253:1 255:74 81:1 45:223 103:1 253:1 255:74 81:1 45:223 103:1 253:1 255:74 81:1 45:223 103:1 253:1 255:74 81:1 45:223 103:1 253:1 255:74 81:1 45:223 103:1 253:1 255:74 81:1 45:173 102:1 103:50 253:1 255:74 197:1 99:1 98:73 172:1 173:49 99:1 98:24 172:1 173:23 186:1 252:1 253:49 255:75 197:1 99:1 98:73 175:50 99:1 98:24 175:24 187:1 255:125 197:1 99:1 98:73 175:50 99:1 98:24 175:24 187:1 255:125 197:1 99:1 98:73 175:50 99:1 98:24 175:24 187:1 255:125 197:1 99:1 98:73 175:50 99:1 98:24 175:24 187:1 255:125 197:1 99:1 98:73 175:50 99:1 98:24 175:24 187:1 255:125 197:1 99:1 98:73 175:50 99:1 98:24 175:24 187:1 255:125 197:1 99:1 98:73 175:50 99:1 98:24 175:24 187:1 255:125 197:1 99:1 98:73 175:50 99:1 98:24 175:24 187:1 255:125 197:1 99:1 98:73 175:50 99:1 98:24 175:24 187:1 255:125 197:1 99:1 98:73 175:50 99:1 98:24 175:24 187:1 255:125 197:1 99:1 98:73 175:50 99:1 98:24 175:24 187:1 255:125 197:1 99:1 98:73 175:50 99:1 98:24 175:24 187:1 255:125 197:1 99:1 98:73 175:50 99:1 98:24 175:24 187:1 255:125 197:1 99:1 98:73 175:50 99:1 98:24 175:24 187:1 255:125 197:1 99:1 98:73 175:50 99:1 98:24 175:24 187:1 255:125 197:1 99:1 98:73 175:50 99:1 98:24 175:24 187:1 255:125 197:1 99:1 98:73 175:50 99:1 98:24 175:24 187:1 255:125 197:1 99:1 98:73 175:50 99:1 98:24 175:24 187:1 255:125 197:1 99:1 98:73 175:50 99:1 98:24 175:24 187:1 255:125 197:1 99:1 98:73 175:50 99:1 98:24 175:24 187:1 255:125 197:1 99:1 98:73 175:50 99:1 98:24 175:24 187:1 255:125 197:1 99:1 98:73 175:50 99:1 98:24 175:24 187:1 255:125 197:1 99:1 98:73 175:50 99:1 98:24 175:24 187:1 255:125 197:1 99:1 98:73 175:50 99:1 98:24 175:24 187:1 255:100 197:25 176:1 175:24 99:1 98:24 173:1 175:74 99:1 98:24 175:24 187:1 188:50 255:50 197:1 101:1 99:23 175:25 99:1 98:24 175:75 99:1 98:24 175:74 187:1 255:50 197:1 99:1 98:23 175:25 99:1 98:24 175:75 99:1 98:24 175:74 187:1 255:50 197:1 99:1 98:23 175:25 99:1 98:24 175:75 99:1 98:24 175:74 187:1 255:50 197:1 99:1 98:23 175:25 99:1 98:24 175:75 99:1 98:24 175:74 187:1 255:50 197:1 99:1 98:23 175:25 99:1 98:24 175:75 99:1 98:24 175:74 187:1 255:50 197:1 99:1 98:23 175:25 99:1 98:24 175:75 99:1 98:24 175:74 187:1 255:50 197:1 99:1 98:23 175:25 99:1 98:24 175:75 99:1 98:24 175:74 187:1 255:50 197:1 99:1 98:23 175:25 99:1 98:24 175:75 99:1 98:24 175:74 187:1 255:50 197:1 99:1 98:23 175:25 99:1 98:24 175:75 99:1 98:24 175:74 187:1 255:50 197:1 99:1 98:23 175:25 99:1 98:24 175:75 99:1 98:24 175:74 187:1 255:50 197:1 99:1 98:23 175:25 99:1 98:24 175:75 99:1 98:24 175:74 187:1 255:50 197:1 99:1 98:23 175:25 99:1 98:24 175:75 99:1 98:24 175:74 187:1 255:50 197:1 99:1 98:23 175:25 99:1 98:24 175:75 99:1 98:24 175:74 187:1 255:50 197:1 99:1 98:23 175:25 99:1 98:24 175:75 99:1 98:24 175:74 187:1 255:50 197:1 99:1 98:23 175:25 99:1 98:24 175:75 99:1 98:24 175:74 187:1 255:50 197:1 99:1 98:23 175:25 99:1 98:24 175:75 99:1 98:24 175:74 187:1 255:50 197:1 99:1 98:23 175:25 99:1 98:24 175:75 99:1 98:24 175:74 187:1 255:50 197:1 99:1 98:23 175:25 99:1 98:24 175:75 99:1 98:24 175:74 187:1 255:50 197:1 99:1 98:23 175:25 99:1 98:24 175:75 99:1 98:24 175:74 187:1 255:50 197:1 99:1 98:23 175:25 99:1 98:24 175:75 99:1 98:24 175:74 187:1 255:50 197:1 99:1 98:23 175:25 99:1 98:24 175:75 99:1 98:24 175:74 187:1 255:50 197:1 99:1 98:23 175:25 99:1 98:24 175:75 99:1 98:24 175:74 187:1 255:50 197:1 99:1 98:23 175:25 99:1 98:24 175:75 99:1 98:24 175:74 187:1 255:50 197:1 99:1 98:23 175:25 99:1 98:24 175:75 99:1 98:24 175:74 187:1 255:50 197:1 99:1 98:23 175:25 99:1 98:24 99:25 175:75 101:1 99:24 175:49 187:1 188:25 255:25 197:1 99:1 98:23 175:25 99:1 98:49 175:75 99:1 98:24 175:75 255:25 197:1 99:1 98:23 175:25 99:1 98:49 175:75 99:1 98:24 175:75 255:25 197:1 99:1 98:23 175:25 99:1 98:49 175:75 99:1 98:24 175:75 255:25 197:1 99:1 98:23 175:25 99:1 98:49 175:75 99:1 98:24 175:75 255:25 197:1 99:1 98:23 175:25 99:1 98:49 175:75 99:1 98:24 175:75 255:25 197:1 99:1 98:23 175:25 99:1 98:49 175:75 99:1 98:24 175:75 255:25 197:1 99:1 98:23 175:25 99:1 98:49 175:75 99:1 98:24 175:75 255:25 197:1 99:1 98:23 175:25 99:1 98:49 175:75 99:1 98:24 175:75 255:25 197:1 99:1 98:23 175:25 99:1 98:49 175:75 99:1 98:24 175:75 255:25 197:1 99:1 98:23 175:25 99:1 98:49 175:75 99:1 98:24 175:75 255:25 197:1 99:1 98:23 175:25 99:1 98:49 175:75 99:1 98:24 175:75 255:25 197:1 99:1 98:23 175:25 99:1 98:49 175:75 99:1 98:24 175:75 255:25 197:1 99:1 98:23 175:25 99:1 98:49 175:75 99:1 98:24 175:75 255:25 197:1 99:1 98:23 175:25 99:1 98:49 175:75 99:1 98:24 175:75 255:25 197:1 99:1 98:23 175:25 99:1 98:49 175:75 99:1 98:24 175:75 255:25 197:1 99:1 98:23 175:25 99:1 98:49 175:75 99:1 98:24 175:75 255:25 197:1 99:1 98:23 175:25 99:1 98:49 175:75 99:1 98:24 175:75 255:25 197:1 99:1 98:23 175:25 99:1 98:49 175:75 99:1 98:24 175:75 255:25 197:1 99:1 98:23 175:25 99:1 98:49 175:75 99:1 98:24 175:75 255:25 197:1 99:1 98:23 175:25 99:1 98:49 175:75 99:1 98:24 175:75 255:25 197:1 99:1 98:23 175:25 99:1 98:49 175:75 99:1 98:24 175:75 255:25 197:1 99:1 98:23 175:25 99:1 98:49 175:75 99:1 98:24 175:75 255:25 197:1 99:1 98:23 175:25 99:1 98:49 175:75 99:1 98:24 175:75 255:25 197:1 99:1 98:23 175:25 99:1 98:49 175:75 99:1 98:24 175:49 187:26 255:25 197:1 99:1 98:48 175:100 101:1 99:24 98:25 99:49 205:1 254:1 255:49 197:1 99:1 98:48 175:100 99:1 98:98 206:1 255:50 197:1 99:1 98:48 175:100 99:1 98:98 206:1 255:50 197:1 99:1 98:48 175:100 99:1 98:98 206:1 255:50 197:1 99:1 98:48 175:100 99:1 98:98 206:1 255:50 197:1 99:1 98:48 175:100 99:1 98:98 206:1 255:50 197:1 99:1 98:48 175:100 99:1 98:98 206:1 255:50 197:1 99:1 98:48 175:100 99:1 98:98 206:1 255:50 197:1 99:1 98:48 175:100 99:1 98:98 206:1 255:50 197:1 99:1 98:48 175:100 99:1 98:98 206:1 255:50 197:1 99:1 98:48 175:100 99:1 98:98 206:1 255:50 197:1 99:1 98:48 175:100 99:1 98:98 206:1 255:50 197:1 99:1 98:48 175:100 99:1 98:98 206:1 255:50 197:1 99:1 98:48 175:100 99:1 98:98 206:1 255:50 197:1 99:1 98:48 175:100 99:1 98:98 206:1 255:50 197:1 99:1 98:48 175:100 99:1 98:98 206:1 255:50 197:1 99:1 98:48 175:100 99:1 98:98 206:1 255:50 197:1 99:1 98:48 175:100 99:1 98:98 206:1 255:50 197:1 99:1 98:48 175:100 99:1 98:98 206:1 255:50 197:1 99:1 98:48 175:100 99:1 98:98 206:1 255:50 197:1 99:1 98:48 175:100 99:1 98:98 206:1 255:50 197:1 99:1 98:48 175:100 99:1 98:98 206:1 255:50 197:1 99:1 98:48 175:100 99:1 98:98 206:1 255:50 197:1 99:1 98:48 175:100 99:1 98:98 206:1 255:50 197:50 176:1 175:99 99:1 98:73 203:1 206:25 255:100 176:1 175:173 187:1 254:1 255:124 176:1 175:173 187:1 255:125 176:1 175:173 187:1 255:125 176:1 175:173 187:1 255:125 176:1 175:173 187:1 255:125 176:1 175:173 187:1 255:125 176:1 175:173 187:1 255:125 176:1 175:173 187:1 255:125 176:1 175:173 187:1 255:125 176:1 175:173 187:1 255:125 176:1 175:173 187:1 255:125 176:1 175:173 187:1 255:125 176:1 175:173 187:1 255:125 176:1 175:173 187:1 255:125 176:1 175:173 187:1 255:125 176:1 175:173 187:1 255:125 176:1 175:173 187:1 255:125 176:1 175:173 187:1 255:125 176:1 175:173 187:1 255:125 176:1 175:173 187:1 255:125 176:1 175:173 187:1 255:125 176:1 175:173 187:1 255:125 176:1 175:173 187:1 255:125 176:1 175:173 187:1 255:125 176:1 175:123 187:51 255:100 197:26 99:1 98:23 46:1 45:24 98:7 99:67 205:1 254:1 255:149 197:1 101:1 99:24 98:24 46:1 45:24 98:74 206:1 255:150 197:1 99:1 98:48 46:1 45:24 98:74 206:1 255:150 197:1 99:1 98:48 46:1 45:24 98:74 206:1 255:150 197:1 99:1 98:48 46:1 45:24 98:74 206:1 255:150 197:1 99:1 98:48 46:1 45:24 98:74 206:1 255:150 197:1 99:1 98:48 46:1 45:24 98:74 206:1 255:150 197:1 99:1 98:48 46:1 45:24 98:74 206:1 255:150 197:1 99:1 98:48 46:1 45:24 98:74 206:1 255:150 197:1 99:1 98:48 46:1 45:24 98:74 206:1 255:150 197:1 99:1 98:48 46:1 45:24 98:74 206:1 255:150 197:1 99:1 98:48 46:1 45:24 98:74 206:1 255:150 197:1 99:1 98:48 46:1 45:24 98:74 206:1 255:150 197:1 99:1 98:48 46:1 45:24 98:74 206:1 255:150 197:1 99:1 98:48 46:1 45:24 98:74 206:1 255:150 197:1 99:1 98:48 46:1 45:24 98:74 206:1 255:150 197:1 99:1 98:48 46:1 45:24 98:74 206:1 255:150 197:1 99:1 98:48 46:1 45:24 98:74 206:1 255:150 197:1 99:1 98:48 46:1 45:24 98:74 206:1 255:150 197:1 99:1 98:48 46:1 45:24 98:74 206:1 255:150 197:1 99:1 98:48 46:1 45:24 98:74 206:1 255:150 197:1 99:1 98:48 46:1 45:24 98:74 206:1 255:150 197:1 99:1 98:48 46:1 45:24 98:74 206:1 255:150 197:1 99:1 98:48 46:1 45:24 98:74 206:1 255:150 197:1 99:1 98:48 46:1 45:24 98:74 206:1 255:125 197:26 99:1 98:48 46:1 45:24 98:50 46:24 103:1 206:75 255:50 197:1 101:1 99:24 98:49 46:1 45:24 98:50 46:1 45:23 46:1 99:74 206:1 255:50 197:1 99:1 98:73 46:1 45:24 98:50 46:1 45:24 98:74 206:1 255:50 197:1 99:1 98:73 46:1 45:24 98:50 46:1 45:24 98:74 206:1 255:50 197:1 99:1 98:73 46:1 45:24 98:50 46:1 45:24 98:74 206:1 255:50 197:1 99:1 98:73 46:1 45:24 98:50 46:1 45:24 98:74 206:1 255:50 197:1 99:1 98:73 46:1 45:24 98:50 46:1 45:24 98:74 206:1 255:50 197:1 99:1 98:73 46:1 45:24 98:50 46:1 45:24 98:74 206:1 255:50 197:1 99:1 98:73 46:1 45:24 98:50 46:1 45:24 98:74 206:1 255:50 197:1 99:1 98:73 46:1 45:24 98:50 46:1 45:24 98:74 206:1 255:50 197:1 99:1 98:73 46:1 45:24 98:50 46:1 45:24 98:74 206:1 255:50 197:1 99:1 98:73 46:1 45:24 98:50 46:1 45:24 98:74 206:1 255:50 197:1 99:1 98:73 46:1 45:24 98:50 46:1 45:24 98:74 206:1 255:50 197:1 99:1 98:73 46:1 45:24 98:50 46:1 45:24 98:74 206:1 255:50 197:1 99:1 98:73 46:1 45:24 98:50 46:1 45:24 98:74 206:1 255:50 197:1 99:1 98:73 46:1 45:24 98:50 46:1 45:24 98:74 206:1 255:50 197:1 99:1 98:73 46:1 45:24 98:50 46:1 45:24 98:74 206:1 255:50 197:1 99:1 98:73 46:1 45:24 98:50 46:1 45:24 98:74 206:1 255:50 197:1 99:1 98:73 46:1 45:24 98:50 46:1 45:24 98:74 206:1 255:50 197:1 99:1 98:73 46:1 45:24 98:50 46:1 45:24 98:74 206:1 255:50 197:1 99:1 98:73 46:1 45:24 98:50 46:1 45:24 98:74 206:1 255:50 197:1 99:1 98:73 46:1 45:24 98:50 46:1 45:24 98:74 206:1 255:50 197:1 99:1 98:73 46:1 45:24 98:50 46:1 45:24 98:74 206:1 255:50 197:1 99:1 98:73 46:1 45:24 98:50 46:1 45:24 98:74 206:1 255:50 197:1 99:1 98:73 46:1 45:24 98:50 46:1 45:24 98:74 206:1 255:25 197:26 99:1 98:73 46:1 45:68 46:6 45:25 98:74 206:26 99:26 98:74 46:1 45:99 98:74 99:26 98:100 46:1 45:99 98:200 46:1 45:99 98:200 46:1 45:99 98:200 46:1 45:99 98:200 46:1 45:99 98:200 46:1 45:99 98:200 46:1 45:99 98:200 46:1 45:99 98:200 46:1 45:99 98:200 46:1 45:99 98:200 46:1 45:99 98:200 46:1 45:99 98:200 46:1 45:99 98:200 46:1 45:99 98:200 46:1 45:99 98:200 46:1 45:99 98:200 46:1 45:99 98:200 46:1 45:99 98:200 46:1 45:99 98:200 46:1 45:99 98:200 46:1 45:99 98:200 46:1 45:99 98:200 46:1 45:99 98:100 175:50 99:1 98:24 46:1 45:24 173:1 175:24 47:1 45:49 175:13 173:12 48:1 46:24 98:25 173:1 175:99 99:1 98:24 46:1 45:24 173:1 175:24 47:1 45:49 175:25 47:1 45:24 98:25 175:100 99:1 98:24 46:1 45:24 173:1 175:24 47:1 45:49 175:25 47:1 45:24 98:25 175:100 99:1 98:24 46:1 45:24 173:1 175:24 47:1 45:49 175:25 47:1 45:24 98:25 175:100 99:1 98:24 46:1 45:24 173:1 175:24 47:1 45:49 175:25 47:1 45:24 98:25 175:100 99:1 98:24 46:1 45:24 173:1 175:24 47:1 45:49 175:25 47:1 45:24 98:25 175:100 99:1 98:24 46:1 45:24 173:1 175:24 47:1 45:49 175:25 47:1 45:24 98:25 175:100 99:1 98:24 46:1 45:24 173:1 175:24 47:1 45:49 175:25 47:1 45:24 98:25 175:100 99:1 98:24 46:1 45:24 173:1 175:24 47:1 45:49 175:25 47:1 45:24 98:25 175:100 99:1 98:24 46:1 45:24 173:1 175:24 47:1 45:49 175:25 47:1 45:24 98:25 175:100 99:1 98:24 46:1 45:24 173:1 175:24 47:1 45:49 175:25 47:1 45:24 98:25 175:100 99:1 98:24 46:1 45:24 173:1 175:24 47:1 45:49 175:25 47:1 45:24 98:25 175:100 99:1 98:24 46:1 45:24 173:1 175:24 47:1 45:49 175:25 47:1 45:24 98:25 175:100 99:1 98:24 46:1 45:24 173:1 175:24 47:1 45:49 175:25 47:1 45:24 98:25 175:100 99:1 98:24 46:1 45:24 173:1 175:24 47:1 45:49 175:25 47:1 45:24 98:25 175:100 99:1 98:24 46:1 45:24 173:1 175:24 47:1 45:49 175:25 47:1 45:24 98:25 175:100 99:1 98:24 46:1 45:24 173:1 175:24 47:1 45:49 175:25 47:1 45:24 98:25 175:100 99:1 98:24 46:1 45:24 173:1 175:24 47:1 45:49 175:25 47:1 45:24 98:25 175:100 99:1 98:24 46:1 45:24 173:1 175:24 47:1 45:49 175:25 47:1 45:24 98:25 175:100 99:1 98:24 46:1 45:24 173:1 175:24 47:1 45:49 175:25 47:1 45:24 98:25 175:100 99:1 98:24 46:1 45:24 173:1 175:24 47:1 45:49 175:25 47:1 45:24 98:25 175:100 99:1 98:24 46:1 45:24 173:1 175:24 47:1 45:49 175:25 47:1 45:24 98:25 175:100 99:1 98:24 46:1 45:24 173:1 175:24 47:1 45:49 175:25 47:1 45:24 98:25 175:100 99:1 98:24 46:1 45:24 173:1 175:24 47:1 45:49 175:25 47:1 45:24 98:25 175:100 99:1 98:24 46:1 45:24 173:1 175:24 47:1 45:49 175:25 47:1 45:24 98:25 175:125 47:1 45:149 172:1 175:149 47:1 45:149 173:1 175:149 47:1 45:149 173:1 175:149 47:1 45:149 173:1 175:149 47:1 45:149 173:1 175:149 47:1 45:149 173:1 175:149 47:1 45:149 173:1 175:149 47:1 45:149 173:1 175:149 47:1 45:149 173:1 175:149 47:1 45:149 173:1 175:149 47:1 45:149 173:1 175:149 47:1 45:149 173:1 175:149 47:1 45:149 173:1 175:149 47:1 45:149 173:1 175:149 47:1 45:149 173:1 175:149 47:1 45:149 173:1 175:149 47:1 45:149 173:1 175:149 47:1 45:149 173:1 175:149 47:1 45:149 173:1 175:149 47:1 45:149 173:1 175:149 47:1 45:149 173:1 175:149 47:1 45:149 173:1 175:149 47:1 45:149 173:1 175:149 47:1 45:149 173:1 175:149 47:1 45:149 173:1 175:124 47:1 45:174 47:25 174:1 175:99 47:1 45:199 173:1 175:99 47:1 45:199 173:1 175:99 47:1 45:199 173:1 175:99 47:1 45:199 173:1 175:99 47:1 45:199 173:1 175:99 47:1 45:199 173:1 175:99 47:1 45:199 173:1 175:99 47:1 45:199 173:1 175:99 47:1 45:199 173:1 175:99 47:1 45:199 173:1 175:99 47:1 45:199 173:1 175:99 47:1 45:199 173:1 175:99 47:1 45:199 173:1 175:99 47:1 45:199 173:1 175:99 47:1 45:199 173:1 175:99 47:1 45:199 173:1 175:99 47:1 45:199 173:1 175:99 47:1 45:199 173:1 175:99 47:1 45:199 173:1 175:99 47:1 45:199 173:1 175:99 47:1 45:199 173:1 175:99 47:1 45:199 173:1 175:99 47:1 45:199 173:1 175:49 187:50 103:1 46:1 45:72 102:1 103:51 45:73 102:1 186:1 187:49 255:50 105:1 46:1 45:72 103:1 253:1 255:49 103:1 45:73 103:1 252:1 255:99 105:1 46:1 45:72 103:1 253:1 255:49 103:1 45:73 103:1 253:1 255:99 105:1 46:1 45:72 103:1 253:1 255:49 103:1 45:73 103:1 253:1 255:99 105:1 46:1 45:72 103:1 253:1 255:49 103:1 45:73 103:1 253:1 255:99 105:1 46:1 45:72 103:1 253:1 255:49 103:1 45:73 103:1 253:1 255:99 105:1 46:1 45:72 103:1 253:1 255:49 103:1 45:73 103:1 253:1 255:99 105:1 46:1 45:72 103:1 253:1 255:49 103:1 45:73 103:1 253:1 255:99 105:1 46:1 45:72 103:1 253:1 255:49 103:1 45:73 103:1 253:1 255:99 105:1 46:1 45:72 103:1 253:1 255:49 103:1 45:73 103:1 253:1 255:99 105:1 46:1 45:72 103:1 253:1 255:49 103:1 45:73 103:1 255:100 105:1 46:1 45:72 103:1 253:1 255:49 103:1 45:73 103:1 255:100 105:1 46:1 45:72 103:1 253:1 255:49 103:1 45:73 103:1 255:100 105:1 46:1 45:72 103:1 253:1 255:49 103:1 45:73 103:1 255:100 105:1 46:1 45:72 103:1 253:1 255:49 103:1 45:73 103:1 255:100 105:1 46:1 45:72 103:1 253:1 255:49 103:1 45:73 103:1 255:100 105:1 46:1 45:72 103:1 253:1 255:49 103:1 45:73 103:1 255:100 105:1 46:1 45:72 103:1 253:1 255:49 103:1 45:73 103:1 255:100 105:1 46:1 45:72 103:1 253:1 255:49 103:1 45:73 103:1 255:100 105:1 46:1 45:72 103:1 253:1 255:49 103:1 45:73 103:1 255:100 105:1 46:1 45:72 103:1 253:1 255:49 103:1 45:73 103:1 255:100 105:1 46:1 45:72 103:1 253:1 255:49 103:1 45:73 103:1 255:100 105:1 46:1 45:72 103:1 253:1 255:49 103:1 45:73 103:1 255:100 105:1 46:1 45:72 103:1 253:1 255:49 103:1 45:73 103:1 255:100 105:1 46:1 45:72 103:1 253:1 255:49 103:1 45:73 103:1 255:100 105:1 46:1 45:47 102:1 103:25 253:1 255:49 103:26 46:1 45:47 103:1 255:75 206:26 99:1 98:47 206:1 255:100 206:1 99:1 98:47 206:26 255:50 206:1 101:1 99:24 98:48 206:1 255:100 206:1 99:1 98:47 99:25 206:1 255:50 206:1 99:1 98:72 206:1 255:100 206:1 99:1 98:72 206:1 255:50 206:1 99:1 98:72 206:1 255:100 206:1 99:1 98:72 206:1 255:50 206:1 99:1 98:72 206:1 255:100 206:1 99:1 98:72 206:1 255:50 206:1 99:1 98:72 206:1 255:100 206:1 99:1 98:72 206:1 255:50 206:1 99:1 98:72 206:1 255:100 206:1 99:1 98:72 206:1 255:50 206:1 99:1 98:72 206:1 255:100 206:1 99:1 98:72 206:1 255:50 206:1 99:1 98:72 206:1 255:100 206:1 99:1 98:72 206:1 255:50 206:1 99:1 98:72 206:1 255:100 206:1 99:1 98:72 206:1 255:50 206:1 99:1 98:72 206:1 255:100 206:1 99:1 98:72 206:1 255:50 206:1 99:1 98:72 206:1 255:100 206:1 99:1 98:72 206:1 255:50 206:1 99:1 98:72 206:1 255:100 206:1 99:1 98:72 206:1 255:50 206:1 99:1 98:72 206:1 255:100 206:1 99:1 98:72 206:1 255:50 206:1 99:1 98:72 206:1 255:100 206:1 99:1 98:72 206:1 255:50 206:1 99:1 98:72 206:1 255:100 206:1 99:1 98:72 206:1 255:50 206:1 99:1 98:72 206:1 255:100 206:1 99:1 98:72 206:1 255:50 206:1 99:1 98:72 206:1 255:100 206:1 99:1 98:72 206:1 255:50 206:1 99:1 98:72 206:1 255:100 206:1 99:1 98:72 206:1 255:50 206:1 99:1 98:72 206:1 255:100 206:1 99:1 98:72 206:1 255:50 206:1 99:1 98:72 206:1 255:100 206:1 99:1 98:72 206:1 255:50 206:1 99:1 98:72 206:1 255:100 206:1 99:1 98:72 206:1 255:50 206:1 99:1 98:72 206:1 255:100 206:1 99:1 98:72 206:1 255:50 206:1 99:1 98:72 206:1 255:100 206:1 99:1 98:72 206:1 255:50 206:1 99:1 98:72 206:1 255:100 206:1 99:1 98:72 206:1 255:25 206:26 99:1 98:72 206:1 255:100 206:1 99:1 98:72 206:26 99:26 98:73 206:1 255:100 206:1 99:1 98:72 99:26 98:99 206:1 255:100 206:1 99:1 98:197 206:1 255:100 206:1 99:1 98:197 206:1 255:100 206:1 99:1 98:197 206:1 255:100 206:1 99:1 98:197 206:1 255:100 206:1 99:1 98:197 206:1 255:100 206:1 99:1 98:197 206:1 255:100 206:1 99:1 98:197 206:1 255:100 206:1 99:1 98:197 206:1 255:100 206:1 99:1 98:197 206:1 255:100 206:1 99:1 98:197 206:1 255:100 206:1 99:1 98:197 206:1 255:100 206:1 99:1 98:197 206:1 255:100 206:1 99:1 98:197 206:1 255:100 206:1 99:1 98:197 206:1 255:100 206:1 99:1 98:197 206:1 255:100 206:1 99:1 98:197 206:1 255:100 206:1 99:1 98:197 206:1 255:100 206:1 99:1 98:197 206:1 255:100 206:1 99:1 98:197 206:1 255:100 206:1 99:1 98:197 206:1 255:100 206:1 99:1 98:197 206:1 255:100 206:1 99:1 98:197 206:1 255:100 206:1 99:1 98:98